X:302
T:Alewander
Z:Jack Campin, http://www.campin.me.uk/
F:Jack Campin's Nine-Note Tunebook
% last edit 27-02-2013
G:allemande from German Switzerland
S:Louise Witzig, Dances of Switzerland
M:2/4
L:1/16
Q:1/4=76
P:AABACCAA
K:C
P:A
cc| c2GG  G2GG |G4 ({AG}E2)DD | D2G2      FGAG   | E4      C2
cc| c2GG  G2GG |G4 ({AG}E2)DD | D2G2      FGAG   | C4      z2||
P:B
K:G
DD|.D2.E2.F2.G2|(^G4    A2)DD |.E2.F2    .G2.A2  | BAGF    G2
DD|.D2.E2.F2.G2|(^G4    A3)=G |.G.F.E.D .^C.D.E.F| G4      z2||
P:C
K:F
CC| C4    F2G2 |  A6      (BA)|.G2.F2    .E2.F2  |.G.F.E.D C2
CC| C4    G2A2 |  B6      (AG)|.F2.E2    .D2.E2  | F4      z2||

